X:1
T:Commemoration, 76.76 D
T:Commemoration, 76.76 D
T:Bartholomäus Gesius, 1605; arr. by Bach, 1769
T:Public Domain Courtesy of the Cyber Hymnal™
C:Bartholomäus Gesius, 1605; arr. by Bach, 1769
Z:Public Domain
Z:Courtesy of the Cyber Hymnal™
%%score ( 1 2 ) ( 3 4 )
L:1/8
Q:1/4=115
M:4/4
K:F
V:1 treble 
V:2 treble 
V:3 bass 
V:4 bass 
V:1
 [Gc]2 | [FA]2 [Fc]2 [Dd]2 [Ec]2 | B4 [CA]2 [FA]2 | [EG]2 [FA]2 [FG]2 [EG]2 x | F6 [Gc]2 | %5
 [FA]2 [Fc]2 [Dd]2 [Ec]2 | B4 [CA]2 [FA]2 | [EG]2 [FA]2 [FG]2 [EG]2 x | F6 G2 | %9
 [EG]2 [FA]2 [GB]2 (cB) | [FA]4 [EG]2 [EG]2 | (A=B) [Gc]2 (dc) [GB]2 | [Gc]6 [Gc]2 | %13
 [FA]2 [_Ec]2 [Dd]2 [=Ec]2 | B4 [CA]2 [FA]2 | [EG]2 [FA]2 [FG]2 [EG]2 | F6 |] %17
V:2
 x2 | x8 | (F2 C2) x4 | x9 | F6 x2 | x8 | F2 C2 x4 | x9 | F6 (CD) | x6 G2 | x8 | F2 x G2 x3 | x8 | %13
 x8 | (F2 C2) x4 | x8 | F6 |] %17
V:3
 [E,C]2 | [F,C]2 [A,,C]2 [B,,B,]2 [C,A,]2 | [D,A,]2 [E,G,]2 F,2 [F,C]2 | C2 C2 C3 z B, | %4
 [F,A,]6 [E,C]2 | [F,C]2 [A,,C]2 [B,,B,]2 [C,A,]2 | [D,A,]2 [E,G,]2 F,2 [F,C]2 | C2 C2 C3 z B, | %8
 [F,A,]6 G,2 | [C,C]2 [A,,C]2 [G,,D]2 [E,,E,C]2 | C4 [C,C]2 [C,C]2 | (CD) [E,E]2 (FE) [G,D]2 | %12
 [C,E]6 [E,C]2 | F,2 (G,A,) [B,,B,]2 [C,A,]2 | [D,A,]2 [E,G,]2 F,2 [F,C]2 | C2 C2 [C,C]2 [C,B,]2 | %16
 [F,,F,A,]6 |] %17
V:4
 x2 | x8 | x4 F,2 x2 | (B,A,) (G,F,) C,2 C,2 x | x8 | x8 | x4 F,2 x2 | B,A, G,F, C,2 C,2 x | %8
 x6 (E,D,) | x8 | ([F,,F,]2 A,,2) x4 | F,2 x D,2 x3 | x8 | F,2 C,2 x4 | x4 F,2 x2 | %15
 (B,A,) (G,F,) x4 | x6 |] %17

